src/components/common/icons/food.svg

<svg height="42" viewBox="0 0 44 42" width="44" xmlns="http://www.w3.org/2000/svg"><path d="m26.8190396 19.2763327c.4354897-.4751437 1.05281-.7460012 1.7001896-.7460012h2.6674323c1.3042563 0 2.5471033-.5495793 3.4186361-1.511846l9.3947024-10.37168548-1.421727-1.40997716-6.905228 6.84816004-1.0154665-1.0070743 6.7020978-7.04961146-1.4216348-1.40988571-7.108266 6.64670857-1.0155588-1.00698284 6.905228-6.84816001-1.4216347-1.40997715-10.4581162 9.31696883c-.9702856.86442147-1.5245369 2.09699697-1.5245369 3.39047427v2.812273c0 .6381886-.2697952 1.2470237-.743735 1.67864l-3.212002 2.9450499-19.78882755-19.6880142c-.61501516-.61002384-1.667272-.10945863-1.56344785.74719005.58163654 4.79834822 3.18415574 10.34096025 8.64995319 15.76158585l4.02111121 3.9879703h4.3315693l1.5452832 1.7626772-16.02653913 14.6947985 3.95204874 3.8844555 14.55188579-15.7534473 14.0033514 15.9729133 4.0509859-3.733024-15.2997701-15.2217912z" fill="#231f20" fill-rule="evenodd"/></svg>

<?xml version="1.0" encoding="UTF-8"?>
<svg width="44px" height="42px" viewBox="0 0 44 42" version="1.1" xmlns="http://www.w3.org/2000/svg" xmlns:xlink="http://www.w3.org/1999/xlink">
    <!-- Generator: Sketch 52.5 (67469) - http://www.bohemiancoding.com/sketch -->
    <title>Icons/.food</title>
    <desc>Created with Sketch.</desc>
    <g id="Vapaaehtoisalusta-Layouts" stroke="none" stroke-width="1" fill="none" fill-rule="evenodd">
        <g id="HKI-Ikonit" transform="translate(-944.000000, -1010.000000)" fill="#231F20">
            <g id="Icons/.food" transform="translate(944.000000, 1010.000000)">
                <path d="M26.8190396,19.2763327 C27.2545293,18.801189 27.8718496,18.5303315 28.5192292,18.5303315 L31.1866615,18.5303315 C32.4909178,18.5303315 33.7337648,17.9807522 34.6052976,17.0184855 L44,6.64680002 L42.578273,5.23682286 L35.673045,12.0849829 L34.6575785,11.0779086 L41.3596763,4.02829714 L39.9380415,2.61841143 L32.8297755,9.26512 L31.8142167,8.25813716 L38.7194447,1.40997715 L37.29781,0 L26.8396938,9.31696883 C25.8694082,10.1813903 25.3151569,11.4139658 25.3151569,12.7074431 L25.3151569,15.5197161 C25.3151569,16.1579047 25.0453617,16.7667398 24.5714219,17.1983561 L21.3594199,20.143406 L1.57059235,0.455391804 C0.955577187,-0.154632036 -0.096679647,0.345933172 0.00714450259,1.20258185 C0.588781035,6.00093007 3.19130024,11.5435421 8.65709769,16.9641677 L12.6782089,20.952138 L17.0097782,20.952138 L18.5550614,22.7148152 L2.52852227,37.4096137 L6.48057101,41.2940692 L21.0324568,25.5406219 L35.0358082,41.5135352 L39.0867941,37.7805112 L23.787024,22.55872 L26.8190396,19.2763327 Z" id="Fill-1"></path>
            </g>
        </g>
    </g>
</svg>
